src/assets/thumbs.svg

<svg width="18" height="18" viewBox="0 0 18 18" fill="none" xmlns="http://www.w3.org/2000/svg">
<g clip-path="url(#clip0_1_1263)">
<path opacity="0.3" d="M15.75 9V7.5H9L10.005 3.495L6.75 6.75V14.25H13.5L15.75 9Z" fill="black"/>
<path d="M6.75 15.75H13.5C14.1225 15.75 14.655 15.375 14.88 14.835L17.145 9.5475C17.2125 9.375 17.25 9.195 17.25 9V7.5C17.25 6.675 16.575 6 15.75 6H11.0175L11.73 2.5725L11.7525 2.3325C11.7525 2.025 11.625 1.74 11.4225 1.5375L10.6275 0.75L5.685 5.6925C5.415 5.9625 5.25 6.3375 5.25 6.75V14.25C5.25 15.075 5.925 15.75 6.75 15.75ZM6.75 6.75L10.005 3.495L9 7.5H15.75V9L13.5 14.25H6.75V6.75ZM0.75 6.75H3.75V15.75H0.75V6.75Z" fill="black"/>
</g>
<defs>
<clipPath id="clip0_1_1263">
<rect width="18" height="18" fill="white"/>
</clipPath>
</defs>
</svg>

<svg xmlns="http://www.w3.org/2000/svg" width="18" height="18" fill="none"><g fill="#000" clip-path="url(#a)"><path d="M15.75 9V7.5H9l1.005-4.005L6.75 6.75v7.5h6.75L15.75 9Z" opacity=".3"/><path d="M6.75 15.75h6.75a1.49 1.49 0 0 0 1.38-.915l2.265-5.288c.067-.172.105-.352.105-.547V7.5c0-.825-.675-1.5-1.5-1.5h-4.732l.712-3.428.022-.24c0-.307-.127-.592-.33-.794L10.627.75 5.685 5.692A1.49 1.49 0 0 0 5.25 6.75v7.5c0 .825.675 1.5 1.5 1.5Zm0-9 3.255-3.255L9 7.5h6.75V9l-2.25 5.25H6.75v-7.5Zm-6 0h3v9h-3v-9Z"/></g><defs><clipPath id="a"><path fill="#fff" d="M0 0h18v18H0z"/></clipPath></defs></svg>
